src/topics/icons/neonmetrics.svg

<?xml version="1.0" encoding="UTF-8" standalone="no"?>
<svg width="256px" height="296px" viewBox="0 0 256 296" version="1.1" xmlns="http://www.w3.org/2000/svg" xmlns:xlink="http://www.w3.org/1999/xlink" preserveAspectRatio="xMidYMid">
	<g>
		<path d="M127.9998,0.3968 L-0.0002,74.2978 L-0.0002,124.8648 L7.5758,124.8648 L7.5758,78.6708 L127.9998,9.1438 L248.4238,78.6708 L248.4238,124.8648 L255.9998,124.8648 L255.9998,74.2978 L127.9998,0.3968 Z M248.4243,171.6947 L248.4243,217.7257 L128.0003,287.2527 L7.5753,217.7257 L7.5753,171.6947 L0.0003,171.6947 L0.0003,222.0987 L128.0003,295.9997 L255.9993,222.0987 L255.9993,171.6947 L248.4243,171.6947 Z M15.3286,83.1474 L127.9996,18.0964 L240.6716,83.1474 L240.6716,213.2494 L127.9996,278.3004 L15.3286,213.2494 L15.3286,83.1474 Z" fill="#404040"></path>
		<path d="M98.5593,219.7297 L60.6823,219.7297 L60.6823,87.3997 C60.6823,81.2777 65.6453,76.3137 71.7683,76.3137 L98.5593,76.3137 C98.5593,76.3137 182.7343,186.9457 183.5673,186.4157 C184.3993,185.8847 157.4403,146.4637 157.4403,146.4637 L157.4403,88.7237 C157.4403,81.8697 162.9963,76.3137 169.8493,76.3137 L196.1783,76.3137 L196.1783,219.7297 L161.2283,219.7297 C161.2283,219.7297 77.5693,110.0237 76.5223,110.9197 C75.4743,111.8157 98.5593,144.0517 98.5593,144.0517 L98.5593,219.7297 Z" fill="#FFFFFF"></path>
	</g>
</svg>

<svg height="296" preserveAspectRatio="xMidYMid" viewBox="0 0 256 296" width="256" xmlns="http://www.w3.org/2000/svg"><path d="m127.9998.3968-128 73.901v50.567h7.576v-46.194l120.424-69.527 120.424 69.527v46.194h7.576v-50.567zm120.4245 171.2979v46.031l-120.424 69.527-120.425-69.527v-46.031h-7.575v50.404l128 73.901 127.999-73.901v-50.404zm-233.0957-88.5473 112.671-65.051 112.672 65.051v130.102l-112.672 65.051-112.671-65.051z" fill="#404040"/><path d="m98.5593 219.7297h-37.877v-132.33c0-6.122 4.963-11.086 11.086-11.086h26.791s84.175 110.632 85.008 110.102c.832-.531-26.127-39.952-26.127-39.952v-57.74c0-6.854 5.556-12.41 12.409-12.41h26.329v143.416h-34.95s-83.659-109.706-84.706-108.81c-1.048.896 22.037 33.132 22.037 33.132z" fill="#fff"/></svg>
